X:792
T:Smash the windows
T:Roaring jelly
R:Jig
O:Ireland
B:Kerr's Fourth p22
B:O'Neill's 965
S:My arrangement from various sources
Z:Transcription, arrangement, chords:Mike Long
M:6/8
L:1/8
K:D
"D"DED F2A|"D"d2f "A"ecA|"G"G2B "D"F2A|"A"E2F GFE|\
"D"DED F2A|"D"d2f "A"ecA|"G"Bgf "A"edc|[1 "D"ded d2A:|
[2 "D"ded dfg|]\
"D"a2f d2f|A2a agf|"A"g2e c2e|A2g gfe|\
"D"f2d "G"g2e|"D"a2f "G"bag|"D"fed "A"ABc|"D"ded dfg|
"D"a2f d2f|A2a agf|"A"g2e c2e|A2g gfe|\
"D"fed "G"gfe|"D"agf "G"bag|"D"fed "A"ABc|"D"ded d2A|]
